public/icons/dark/expo.darkmode.svg

<svg width="192" height="192" viewBox="0 0 192 192" fill="none" xmlns="http://www.w3.org/2000/svg">
<g clip-path="url(#clip0_468_1745)">
<path d="M91.9396 77.4602C93.2096 75.5802 94.5996 75.3502 95.7296 75.3502C96.8596 75.3502 98.7396 75.5902 100.01 77.4602C110.03 91.2402 126.56 118.69 138.76 138.95C146.71 152.16 152.82 162.3 154.08 163.59C158.79 168.44 165.24 165.42 168.99 159.92C172.68 154.51 173.71 150.71 173.71 146.66C173.71 143.9 120.23 44.2702 114.84 35.9802C109.66 28.0002 107.97 25.9902 99.1096 25.9902H92.4796C83.6396 25.9902 82.3596 28.0002 77.1796 35.9802C71.7896 44.2702 18.3096 143.9 18.3096 146.66C18.3096 150.71 19.3296 154.51 23.0296 159.92C26.7796 165.42 33.2296 168.44 37.9396 163.59C39.1896 162.3 45.2996 152.16 53.2596 138.95C65.4596 118.7 81.9396 91.2502 91.9596 77.4602H91.9396Z" fill="white"/>
</g>
<defs>
<clipPath id="clip0_468_1745">
<rect width="192" height="192" fill="white"/>
</clipPath>
</defs>
</svg>

<?xml version="1.0" encoding="UTF-8"?><svg id="Capa_2" xmlns="http://www.w3.org/2000/svg" viewBox="0 0 192 192"><defs><style>.cls-1{fill:none;}.cls-2{fill:#000020;}</style></defs><g id="outline"><rect class="cls-1" width="192" height="192"/><rect class="cls-1" width="192" height="192"/></g><g id="icons"><path class="cls-2" d="M91.94,77.46c1.27-1.88,2.66-2.11,3.79-2.11s3.01,.24,4.28,2.11c10.02,13.78,26.55,41.23,38.75,61.49,7.95,13.21,14.06,23.35,15.32,24.64,4.71,4.85,11.16,1.83,14.91-3.67,3.69-5.41,4.72-9.21,4.72-13.26,0-2.76-53.48-102.39-58.87-110.68-5.18-7.98-6.87-9.99-15.73-9.99h-6.63c-8.84,0-10.12,2.01-15.3,9.99-5.39,8.29-58.87,107.92-58.87,110.68,0,4.05,1.02,7.85,4.72,13.26,3.75,5.5,10.2,8.52,14.91,3.67,1.25-1.29,7.36-11.43,15.32-24.64,12.2-20.25,28.68-47.7,38.7-61.49Z"/></g></svg>
